icons/production/markdown.svg

<?xml version="1.0" encoding="UTF-8" standalone="no"?>
<svg width="24px" height="24px" viewBox="0 0 24 24" version="1.1" xmlns="http://www.w3.org/2000/svg">
<!--Generator: Sketch 3.8.3 (29802) - http://www.bohemiancoding.com/sketch-->
    <title>
        markdown
    </title>
    <desc>
        Created with Sketch.
    </desc>
    <g id="Page-1" stroke="none" stroke-width="1" fill="none" fill-rule="evenodd">
        <path d="M2,8 L4,8 L7,11 L9.99999,8.00001 L12,8.00001 L12,16 L9.99999,16 L9.99998999,11 L7,14 L4,11 L4,16 L2,16 L2,8 Z M20,8 L20,12 L21.9881601,12 L18,16 L14,12 L16,12 L16,8 L20,8 Z" id="markdown" fill="#000"/>
    </g>
</svg>

<svg xmlns="http://www.w3.org/2000/svg" viewBox="0 0 24 24">
    <path fill-rule="evenodd" d="M2 8h2l3 3 3-3h2v8h-2v-5l-3 3-3-3v5H2V8zm18 0v4h1.988L18 16l-4-4h2V8h4z"/>
</svg>
